assets/themes/nordic/close-active.svg

<svg height="13" width="12" xmlns="http://www.w3.org/2000/svg"><g fill-rule="evenodd" transform="matrix(.01265624987 0 0 -.01265624987 .93221665109 11.58413566734)"><path d="m433 9.64453c236.059 0 427.426 191.36747 427.426 427.42547 0 236.063-191.367 427.43-427.426 427.43-236.066 0-427.43359-191.367-427.43359-427.43 0-236.058 191.36759-427.42547 427.43359-427.42547" fill="#d52735"/><path d="m433 45.9961c215.98 0 391.07 175.0939 391.07 391.0739 0 215.989-175.09 391.078-391.07 391.078-215.988 0-391.0781-175.089-391.0781-391.078 0-215.98 175.0901-391.0739 391.0781-391.0739" fill="#d52735"/><g fill="#9f1d2b"><path d="m231.395 285.789 352.886 352.883c13.657 13.66 36 13.66 49.664 0l.653-.656c13.66-13.657 13.66-36.004.004-49.661l-352.887-352.882c-13.66-13.66-36.004-13.66-49.66 0l-.66.652c-13.657 13.66-13.657 36.004 0 49.664"/><path d="m281.715 638.672 352.883-352.883c13.656-13.656 13.656-36.004 0-49.664l-.657-.652c-13.66-13.66-36.003-13.66-49.66 0l-352.886 352.882c-13.661 13.657-13.661 36.004 0 49.661l.656.656c13.66 13.66 36.004 13.66 49.664 0"/></g></g></svg>

<?xml version="1.0" encoding="UTF-8" standalone="no"?>
<!-- Created with Inkscape (http://www.inkscape.org/) -->

<svg
   xmlns:dc="http://purl.org/dc/elements/1.1/"
   xmlns:cc="http://creativecommons.org/ns#"
   xmlns:rdf="http://www.w3.org/1999/02/22-rdf-syntax-ns#"
   xmlns:svg="http://www.w3.org/2000/svg"
   xmlns="http://www.w3.org/2000/svg"
   xmlns:sodipodi="http://sodipodi.sourceforge.net/DTD/sodipodi-0.dtd"
   xmlns:inkscape="http://www.inkscape.org/namespaces/inkscape"
   width="12"
   height="13"
   id="svg2"
   version="1.1"
   inkscape:version="0.48.4 r9939"
   sodipodi:docname="close_unfocussed.svg">
  <defs
     id="defs4" />
  <sodipodi:namedview
     id="base"
     pagecolor="#ffffff"
     bordercolor="#666666"
     borderopacity="1.0"
     inkscape:pageopacity="0.0"
     inkscape:pageshadow="2"
     inkscape:zoom="22.627417"
     inkscape:cx="8.1727918"
     inkscape:cy="6.4146286"
     inkscape:document-units="px"
     inkscape:current-layer="g4092"
     showgrid="true"
     fit-margin-top="0"
     fit-margin-left="0"
     fit-margin-right="0"
     fit-margin-bottom="0"
     inkscape:window-width="1280"
     inkscape:window-height="751"
     inkscape:window-x="0"
     inkscape:window-y="24"
     inkscape:window-maximized="1" />
  <metadata
     id="metadata7">
    <rdf:RDF>
      <cc:Work
         rdf:about="">
        <dc:format>image/svg+xml</dc:format>
        <dc:type
           rdf:resource="http://purl.org/dc/dcmitype/StillImage" />
        <dc:title></dc:title>
      </cc:Work>
    </rdf:RDF>
  </metadata>
  <g
     inkscape:label="Layer 1"
     inkscape:groupmode="layer"
     id="layer1"
     transform="translate(-671.14288,-651.57648)">
    <g
       transform="matrix(0.1265625,0,0,-0.1265625,672.07092,663.09636)"
       inkscape:label="ink_ext_XXXXXX"
       id="g4090">
      <g
         transform="scale(0.1,0.1)"
         id="g4092">
        <g
           transform="matrix(9.9999999,0,0,9.9999999,0.33000657,-5.0769914)"
           inkscape:label="ink_ext_XXXXXX"
           id="g4240">
          <g
             transform="scale(0.1,0.1)"
             id="g4242">
            <path
               id="path4244"
               style="fill:#d52735;fill-opacity:1;fill-rule:evenodd;stroke:none"
               d="M 433,9.64453 C 669.059,9.64453 860.426,201.012 860.426,437.07 860.426,673.133 669.059,864.5 433,864.5 196.934,864.5 5.56641,673.133 5.56641,437.07 5.56641,201.012 196.934,9.64453 433,9.64453"
               inkscape:connector-curvature="0" />
            <path
               id="path4246"
               style="fill:#d52735;fill-opacity:1;fill-rule:evenodd;stroke:none"
               d="M 433,45.9961 C 648.98,45.9961 824.07,221.09 824.07,437.07 824.07,653.059 648.98,828.148 433,828.148 217.012,828.148 41.9219,653.059 41.9219,437.07 41.9219,221.09 217.012,45.9961 433,45.9961"
               inkscape:connector-curvature="0" />
            <path
               id="path4248"
               style="fill:#9f1d2b;fill-opacity:1;fill-rule:evenodd;stroke:none"
               d="m 231.395,285.789 352.886,352.883 c 13.657,13.66 36,13.66 49.664,0 l 0.653,-0.656 c 13.66,-13.657 13.66,-36.004 0.004,-49.661 L 281.715,235.473 c -13.66,-13.66 -36.004,-13.66 -49.66,0 l -0.66,0.652 c -13.657,13.66 -13.657,36.004 0,49.664"
               inkscape:connector-curvature="0" />
            <path
               id="path4250"
               style="fill:#9f1d2b;fill-opacity:1;fill-rule:evenodd;stroke:none"
               d="M 281.715,638.672 634.598,285.789 c 13.656,-13.656 13.656,-36.004 0,-49.664 l -0.657,-0.652 c -13.66,-13.66 -36.003,-13.66 -49.66,0 L 231.395,588.355 c -13.661,13.657 -13.661,36.004 0,49.661 l 0.656,0.656 c 13.66,13.66 36.004,13.66 49.664,0"
               inkscape:connector-curvature="0" />
          </g>
        </g>
      </g>
    </g>
  </g>
</svg>
